X: 1
T: Maghera Mountain
M: 4/4
L: 1/8
R: reel
K: Gmaj
|:cd|e2 dB cAAG|EA A2 EA A2|e2 dB cAAc|BGdG eGdG|
e2 dB cAAG|EA A2 EA A2|GABd gdBd|ceBc A2:|
|:BA|GABd g2 fg|a2 ab agfg|fdad bdad|fdad bdad|
c2 AG A3  c|BGGF G2 AB|ceaf gede|ceBc A2:|
